X: 30835
T: Our Little Robin
R: jig
M: 6/8
K: Dmajor
A,|:A,B,D DB,A,|B,A,B, D2 E|FAA BAA|BAF EDB,|
A,B,D DB,A,|B,A,B, D2 E|FAA BAF|EDC D3:|
|:FAA BAA|dAF d3|FAA BAA|BAF EDB,|
A,B,D DB,A,|B,A,B, D2 E|FAA BAF|EDC D3:|

